X: 13
T:Diferiad y Gerwyn
M:3/4
L:1/8
Q:200
C:Trad
S:Blodau'r Grug Collection Vol. 3
A:Wales
Z:brian_martin12345@yahoo.com
K:C
EF GA GF|EF GE C2|EF GA GF|E2c2B2|AB cd e2|dc BA G2|AB ce dB|B2c4:||
e3f ge|dc BA G2|AB cB cA|GF ED C2|e3f ge|dc BA G2|AB ce Bd|c2 C4:||

